X:1
T:Title
%%score { 1 | ( 2 3 ) }
L:1/8
M:3/4
K:G
V:1 treble nm="Grand Piano"
V:2 treble 
V:3 treble 
V:1
 z2 z2[Q:1/4=92] B>A | G3 F A>G | F2 E2 (3DGB | d3 B A>G |[M:2/4] A4 |[M:1/4] B>A | %6
[M:3/4] G3 F A>G | F2 E2 e>d | c>A B2 A2 | G4 z2 | F>G A>B d>c | c4 B2 | A>B c>d f>e |[M:2/4] d4 | %14
[M:1/4] d>^c |[M:3/4] e3 d c>B | d2 c2 e>d | c>A B2 A2 | G4 z2 | F>[EG] [FA]>[GB] [Bd]>[Ac] | %20
 [Ac]4 B2 | A>B c>d f>[Fe] |[M:2/4] d4 |[M:1/4] d>^c |[M:3/4] e3 d c>B | [EGd]2 [EGc]2 [Ge]>[DGd] | %26
 [EGc]>[EGA] [DGB]2 .[CFA]2 |[M:2/4] [G,B,DG]4 |] %28
V:2
 z2 z2 D>C | B,3 A, C>B, | D2 C2 (3:2:2z2 G | B3 G F>E |[M:2/4] F4 |[M:1/4] D>C | %6
[M:3/4][K:bass] B,3 A, C>B, | D2[K:treble] C2 C>B, | E>C D2 C2 | B,4 z2 | D>E F>G B>A | A4 G2 | %12
 F>G A>B d>c |[M:2/4] B4 |[M:1/4] B>_B |[M:3/4] c3 B A>G | F2 E2 c>B | A>D D2 C2 | B,4 z2 | %19
 [D,D]>[D,D] [D,D]>[D,D] [D,D]>[D,D] | [G,D]4 [G,DG]2 | %21
 [D,F,D]>[D,G,D] [D,A,D]>[D,B,D] [D,D]>[D,C] |[M:2/4][K:treble] [G,B,G]4 | %23
[M:1/4] [G,B,G]>[G,_B,G] |[M:3/4] [G,CG]3 [G,B,G] [G,CEG]>[G,DG] | C,2 C,2 [C,C]>B,, | %26
 A,,>C, D,2 z D |[M:2/4] G,,4 |] %28
V:3
 x6 | x6 | z2 z2 B,2 | x6 |[M:2/4] x4 |[M:1/4] x2 |[M:3/4][K:bass] x6 | x2[K:treble] x4 | x6 | x6 | %10
 x6 | x6 | x6 |[M:2/4] x4 |[M:1/4] x2 |[M:3/4] x6 | x6 | x6 | x6 | x6 | x6 | x6 | %22
[M:2/4][K:treble] x4 |[M:1/4] x2 |[M:3/4] x6 | x6 | z2 z2 D,2 |[M:2/4] x4 |] %28

